resources/svg/expand-collapse-vertical-2.svg

<svg xmlns="http://www.w3.org/2000/svg" fill="none" viewBox="0 0 14 14"><path fill="currentColor" fill-rule="evenodd" d="M9.99991 3.95617C10.6932 3.95617 11.0265 3.08215 10.4728 2.63166C9.47679 1.82117 8.70373 1.3005 7.49267 0.609977C7.18754 0.435997 6.81252 0.435997 6.50739 0.609977C5.29633 1.3005 4.52327 1.82117 3.52724 2.63166C2.97361 3.08215 3.30689 3.95617 4.00015 3.95617L9.99991 3.95617ZM4.00021 10.0439C3.30695 10.0439 2.97367 10.918 3.5273 11.3685C4.52332 12.1789 5.29638 12.6996 6.50745 13.3901C6.81258 13.5641 7.18759 13.5641 7.49272 13.3901C8.70379 12.6996 9.47685 12.1789 10.4729 11.3685C11.0265 10.918 10.6932 10.0439 9.99996 10.0439H4.00021ZM5.54817 5.54686C4.74549 6.34954 4.74549 7.65094 5.54817 8.45363C6.35085 9.25631 7.65226 9.25631 8.45494 8.45363C9.25762 7.65094 9.25762 6.34954 8.45494 5.54686C7.65226 4.74418 6.35085 4.74418 5.54817 5.54686Z" clip-rule="evenodd"></path></svg>

<svg xmlns="http://www.w3.org/2000/svg" fill="none" viewBox="0 0 14 14"><path fill="currentColor" fill-rule="evenodd" d="M10 3.956c.693 0 1.027-.874.473-1.324-.996-.81-1.77-1.332-2.98-2.022a.995.995 0 0 0-.986 0c-1.21.69-1.984 1.211-2.98 2.022-.553.45-.22 1.324.473 1.324h6Zm-6 6.088c-.693 0-1.026.874-.473 1.324.996.81 1.77 1.332 2.98 2.022.306.174.68.174.986 0 1.21-.69 1.984-1.211 2.98-2.022.553-.45.22-1.324-.473-1.324H4Zm1.548-4.497a2.055 2.055 0 1 0 2.907 2.907 2.055 2.055 0 0 0-2.907-2.907Z" clip-rule="evenodd"/></svg>
